svgs/solid/arrows-maximize.svg

<svg xmlns="http://www.w3.org/2000/svg" viewBox="0 0 448 512"><!-- Font Awesome Pro 6.0.0-alpha2 by @fontawesome - https://fontawesome.com License - https://fontawesome.com/license (Commercial License) --><path d="M416 224C433.688 224 448 209.688 448 192V64C448 59.836 447.152 55.688 445.537 51.781C442.295 43.941 436.059 37.703 428.217 34.461C424.311 32.848 420.162 32 416 32H288C270.312 32 256 46.312 256 64S270.312 96 288 96H338.75L224 210.75L109.25 96H160C177.688 96 192 81.688 192 64S177.688 32 160 32H32C27.838 32 23.689 32.848 19.783 34.461C11.941 37.703 5.705 43.941 2.463 51.781C0.848 55.688 0 59.836 0 64V192C0 209.688 14.312 224 32 224S64 209.688 64 192V141.25L178.75 256L64 370.75V320C64 302.312 49.688 288 32 288S0 302.312 0 320V448C0 452.164 0.848 456.312 2.461 460.219C5.703 468.059 11.941 474.297 19.781 477.539C23.688 479.152 27.836 480 32 480H160C177.688 480 192 465.688 192 448S177.688 416 160 416H109.25L224 301.25L338.75 416H288C270.312 416 256 430.312 256 448S270.312 480 288 480H416C420.164 480 424.312 479.152 428.219 477.539C436.059 474.297 442.297 468.059 445.539 460.219C447.152 456.312 448 452.164 448 448V320C448 302.312 433.688 288 416 288S384 302.312 384 320V370.75L269.25 256L384 141.25V192C384 209.688 398.312 224 416 224Z"/></svg>

<svg xmlns="http://www.w3.org/2000/svg" viewBox="0 0 448 512"><!--! Font Awesome Pro 6.3.0 by @fontawesome - https://fontawesome.com License - https://fontawesome.com/license (Commercial License) Copyright 2023 Fonticons, Inc. --><path d="M288 32c-17.7 0-32 14.3-32 32s14.3 32 32 32h50.7L224 210.7 109.3 96H160c17.7 0 32-14.3 32-32s-14.3-32-32-32H32C14.3 32 0 46.3 0 64V192c0 17.7 14.3 32 32 32s32-14.3 32-32V141.3L178.7 256 64 370.7V320c0-17.7-14.3-32-32-32s-32 14.3-32 32V448c0 17.7 14.3 32 32 32H160c17.7 0 32-14.3 32-32s-14.3-32-32-32H109.3L224 301.3 338.7 416H288c-17.7 0-32 14.3-32 32s14.3 32 32 32H416c17.7 0 32-14.3 32-32V320c0-17.7-14.3-32-32-32s-32 14.3-32 32v50.7L269.3 256 384 141.3V192c0 17.7 14.3 32 32 32s32-14.3 32-32V64c0-17.7-14.3-32-32-32H288z"/></svg>
